X:1
T:Come Where My Love Lies Dreaming
T:Come Where My Love Lies Dreaming
T:Stephen C. Foster
C:Stephen C. Foster
%%score [ 1 2 3 4 ]
L:1/8
Q:1/4=110
M:4/4
K:F
V:1 treble nm="Soprano" snm="S"
V:2 treble nm="Alto" snm="A"
V:3 treble-8 nm="Tenor" snm="T"
V:4 bass nm="Bass" snm="B"
V:1
"^Moderato" z8"^Serenade, per voci sole" | z8 | z8 | z8 | z8 | z8 | z8 | z8 |:!p! e4 d3 e | %9
w: ||||||||Dream- ing the|
 dc f4 z2 | c2 B>A AG A>B | (!fermata!!turn!F4 E2) z2 | z4"^poco lento" z2 z!p! d | %13
w: hap- py hours,|Dream- ing the hap- py hours a-|way; *|My|
 d4"^graz."!<(! ^cdef!<)! |"^a  tempo"!>(! (fA)!>)! d>c =Bc _B>G | F6 z2 | z4 z2 z f | f4 eB e>d | %18
w: own love is sweet- ly|dream- * ing the hap- py hours a-|way.|My|own love is sweet- ly|
 c2 A2 z cdc | (cB) G2 z4 | z4 z2 z d | d4"^graz." ^cdef | (fA) d>c =Bc _B>G | F6 z2 | z4 z2 z f | %25
w: dream- ing, Her beau- ty|beam- * ing;|My|own love is sweet- ly|dream- * ing the hap- py hours a-|way.|My|
 f4 eB e>d | c2 A2 z cdc | (cB) G2 z4 | z4 z2"^(2.) lento" z d | %29
w: own love is sweet- ly|dream- ing, her beau- ty|beam- * ing;|My|
 d4"^graz." ^c!<(!de!<)!f"^a  tempo" |!>(! (fA)!>)! d>c =Bc _B>G |O F6 z2 |!mf! G2 GG e2 c z | %33
w: own love is sweet- ly|dream- * ing the hap- py hours a-|way.|Soft is her slum- ber;|
 A z AA A4 | =B z BB e3 d | dccA G4 | G2 GG e2 c z | A z AA A4 |"^rit." G2 GG A2 =B2 | %39
w: Thoughts bright and free|Dance through her dreams Like|gush- ing mel- o- dy;|Light is her young heart,|Light may it be:|Come where my love lies|
!>(! (dc)_B!>)!G E2"^a  tempo" z2 :|"^ad lib.""^rit." c4!<(! ^c2 d2!<)! | %41
w: dream- * * * ing....|Dream- ing the|
 ee!>(! !fermata!a4!>)! z !fermata!g | f8- | f2 z2 z4 |] %44
w: hap- py hours a-|way.||
V:2
!p! A2 A>A G2 F2 | B4 A2 z2 | A2 G>G GF A>F | E6 z E | F F3 F3 F | E4 E2 z E | F F3 F2 F2 | %7
w: Come where my love lies|dream- ing,|Dream- ing the hap- py hours a-|way, In|vis- ions bright re-|deem- ing The|fleet- ing joys of|
 E6 z2 |:!p! G2 G>G G2 G2 | F2 F2 z2 z2 | A2 G>F FE F>G | !fermata!C6 z2 |!mf! F2 F>F F2 F2 | %13
w: day;|Come where my love lies|dream- ing,|Dream- ing the hap- py hours a-|way;|Come where my love lies|
 F F3 z4 | A2 F>F EE E>E | F6 z2 | A2 F>G A2 F2 | F F3 z4 | F2 FG A2 F2 | E4 z4 | F2 F>F F2 F2 | %21
w: dream- ing,|Dream- ing the hap- py hours a-|way.|Come where my love lies|dream- ing,|Come with a lute- toned|lay;|Come where my love lies|
 F F3 z4 | A2 F>F EE E>E | F6 z2 |"^stacc."!f! AF/G/ A z AF/G/ A z |!p! F z F z F z F z | %26
w: dream- ing,|Dream- ing the hap- py hours a-|way.|Come with a lute, come with a lay,|Come, come, come, come,|
 F z F z F z F z | E z E z E z E z |!mf! F2 F>F F2 F2 | F F3 z4 | A2 F>F EE E>E | F6 z2 | %32
w: come, come, come, come,|come, come, come, come;|Come where my love lies|dream- ing,|Dream- ing the hap- py hours a-|way.|
!mf! E2 EE G2 E z | F z FF F4 | F z FF F3 F | EEAF E4 | E2 EE G2 E z | F z FF F4 | %38
w: Soft is her slum- ber,|Thoughts bright and free|Dance through her dreams Like|gush- ing mel- o- dy;|Light is her young heart,|Light may it be:|
"^rit." G2 GG ^F2 =F2 | E4 _B2"^a  tempo" z2 :|"^rit." A4!<(! G2 F2!<)! | %41
w: Come where my love lies|dream- ing.|Dream- ing the|
 EE!>(! !fermata!E4!>)! z !fermata!E | F8- | F2 z2 z4 |] %44
w: hap- py hours a-|way.||
V:3
!p! c2 c>c B2 A2 | d4 c2 z2 | c2 B>B BA c>A | G6 z c | =B d3 A3 B | A4 G2 z c | =B d3 A2 B2 | %7
w: Come where my love lies|dream- ing,|Dream- ing the hap- py hours a-|way, In|vis- ions bright re-|deem- ing The|fleet- ing joys of|
 c6 z2 |:!p! B2 B>B B2 B2 | A2 A2 z2 z2 | z8 |!>(! (!fermata!c3 A)!>)! G2 z2 |!mf! A2 A>A B2 c2 | %13
w: day;|Come where my love lies|dream- ing,||Dream- * ing,|Come where my love lies|
 c B3 z4 | c2 A>A GG c>B | A6 z2 | c2 A>B c2 F2 | d d3 z4 | A2 AB c2 A2 | G4 z4 | A2 A>A B2 c2 | %21
w: dream- ing,|Dream- ing the hap- py hours a-|way.|Come where my love lies|dream- ing,|Come with a lute- toned|lay;|Come where my love lies|
 c B3 z4 | c2 A>A GG c>B | A6 z2 |"^stacc."!f! cA/B/ c z cA/B/ c z |!p! d z d z B z B z | %26
w: dream- ing,|Dream- ing the hap- py hours a-|way.|Come with a lute, come with a lay,|Come, come, come, come,|
 A z A z A z A z | G z G z B z B z |!mf! A2 A>A B2 c2 | c B3 z4 | c2 A>A GG c>B | A6 z2 | %32
w: come, come, come, come,|come, come, come, come;|Come where my love lies|dream- ing,|Dream- ing the hap- py hours a-|way.|
!mf! c2 cc c2 c z | c z cc c4 | G z GG =B3 B | cccc c4 | c2 cc c2 c z | c z cc c4 | %38
w: Soft is her slum- ber,|Thoughts bright and free|Dance through her dreams Like|gush- ing mel- o- dy;|Light is her young heart,|Light may it be:|
"^rit." =B2 BB c2 d2 | c4 c2"^a  tempo" z2 :|"^rit." A4!<(! A2 A2!<)! | %41
w: Come where my love lies|dream- ing.|Dream- ing the|
 AA!>(! !fermata!c4!>)! z !fermata!B | A8- | A2 z2 z4 |] %44
w: hap- py hours a-|way.||
V:4
!p! F,2 F,>F, F,2 F,2 | F,4 F,2 z2 | F,2 F,>F, F,F, F,>F, | C,6 z C, | G,, G,,3 G,,3 G,, | %5
w: Come where my love lies|dream- ing,|Dream- ing the hap- py hours a-|way, In|vis- ions bright re-|
 C,4 C,2 z C, | G,, G,,3 G,,2 G,,2 | C,6 z2 |:!p! C,2 C,>C, C,2 C,2 | F,,2 F,,2 z2 z2 | %10
w: deem- ing The|fleet- ing joys of|day;|Come where my love lies|dream- ing,|
 F,,2 F,,>F,, F,,F,, F,,>F,, | !fermata!C,6 z2 |!mf! F,2 _E,>E, D,2 C,2 | B,, B,,3 z4 | %14
w: Dream- ing the hap- py hours a-|way;|Come where my love lies|dream- ing,|
 C,2 C,>C, C,C, C,>C, | F,,6 z2 | F,,2 F,,>F,, F,,2 F,,2 | B,, B,,3 z4 | F,,2 F,,F,, F,,2 F,,2 | %19
w: Dream- ing the hap- py hours a-|way.|Come where my love lies|dream- ing,|Come with a lute- toned|
 C,4 z4 | F,2 _E,>E, D,2 C,2 | B,, B,,3 z4 | C,2 C,>C, C,C, C,>C, | F,,6 z2 | %24
w: lay;|Come where my love lies|dream- ing,|Dream- ing the hap- py hours a-|way.|
"^stacc."!f! F,F,/F,/ F, z F,F,/F,/ F, z |!p! B,, z B,, z B,, z B,, z | F,, z F,, z F,, z F,, z | %27
w: Come with a lute, come with a lay,|Come, come, come, come,|come, come, come, come,|
 C, z C, z C, z C, z |!mf! F,2 _E,>E, D,2 C,2 | B,, B,,3 z4 | C,2 C,>C, C,C, C,>C, | F,,6 z2 | %32
w: come, come, come, come;|Come where my love lies|dream- ing,|Dream- ing the hap- py hours a-|way.|
!mf! C,2 C,C, C,2 C, z | F, z F,F, F,4 | G, z G,G, G,3 G, | C,C,C,C, C,4 | C,2 C,C, C,2 C, z | %37
w: Soft is her slum- ber,|Thoughts bright and free|Dance through her dreams Like|gush- ing mel- o- dy;|Light is her young heart,|
 F, z F,F, F,4 |"^rit." D,2 D,D, D,2 G,2 | C,4 C,2"^a  tempo" z2 :|"^rit." F,4!<(! E,2 D,2!<)! | %41
w: Light may it be:|Come where my love lies|dream- ing.|Dream- ing the|
 ^C,C,!>(! !fermata!=C,4!>)! z !fermata!C, | F,,8- | F,,2 z2 z4 |] %44
w: hap- py hours a-|way.||

